assets/images/icons/warning.svg

<svg width="19" height="16" viewBox="0 0 19 16" fill="none" xmlns="http://www.w3.org/2000/svg">
<path d="M18.7812 13.7812L11.2812 0.749985C10.7187 -0.218765 9.24999 -0.250015 8.68749 0.749985L1.18749 13.7812C0.624993 14.75 1.34374 16 2.49999 16H17.4687C18.625 16 19.3437 14.7812 18.7812 13.7812ZM9.99999 11.0625C10.7812 11.0625 11.4375 11.7187 11.4375 12.5C11.4375 13.3125 10.7812 13.9375 9.99999 13.9375C9.18749 13.9375 8.56249 13.3125 8.56249 12.5C8.56249 11.7187 9.18749 11.0625 9.99999 11.0625ZM8.62499 5.90624C8.59374 5.68749 8.78124 5.49999 8.99999 5.49999H10.9687C11.1875 5.49999 11.375 5.68749 11.3437 5.90624L11.125 10.1562C11.0937 10.375 10.9375 10.5 10.75 10.5H9.21874C9.03124 10.5 8.87499 10.375 8.84374 10.1562L8.62499 5.90624Z" fill="#FFB900"/>
</svg>

<svg width="19" height="16" fill="none" xmlns="http://www.w3.org/2000/svg"><path d="M18.781 13.781L11.281.75c-.562-.969-2.031-1-2.594 0l-7.5 13.031C.625 14.75 1.344 16 2.5 16h14.969c1.156 0 1.875-1.219 1.312-2.219zM10 11.062c.781 0 1.438.657 1.438 1.438 0 .813-.657 1.438-1.438 1.438A1.414 1.414 0 018.562 12.5c0-.781.625-1.438 1.438-1.438zM8.625 5.907c-.031-.22.156-.407.375-.407h1.969c.219 0 .406.187.375.406l-.219 4.25c-.031.219-.188.344-.375.344H9.219c-.188 0-.344-.125-.375-.344l-.219-4.25z" fill="#FFB900"/></svg>
